X:1
T:Life’s Railway to Heaven
T:Life’s Railway to Heaven
T:Charles Davis Tillman 
T:M. E. Abbey, 1890
T:Public Domain Courtesy of the Cyber Hymnal™
T:Public Domain Courtesy of the Cyber Hymnal™
C:Charles Davis Tillman
Z:Public Domain
Z:Courtesy of the Cyber Hymnal™
%%score 1 ( 2 3 )
L:1/8
Q:1/4=105
M:3/4
K:Ab
V:1 treble 
V:2 bass 
V:3 bass 
V:1
 [Ec][Ec] | [Ec]3 [CA] [DB][Ec] | [DB]2 [CA]2 [CA][CA] | [FA]3 [FB] [FA][DF] | [CE]4 [CE]>[CE] | %5
w: 1.~Life is|like a moun- tain|rail- road, with an|en- gin- eer that’s|brave; We must|
w: 2.~You will|roll up grades of|tri- al; you will|cross the bridge of|strife; See that|
w: 3.~You will|of- ten find ob-|struct- ions; look for|storms of wind and|rain; On a|
w: 4.~As you|roll a- cross the|tres- tle, span- ning|Jor- dan’s swell- ing|tide, You be-|
 [CA]3 [CE] [CA][DB] | [Ec] [Ec]3 [CA]>[CA] | [=DB]3 [DB] [FA][Ac] | [GB]4 [Ec][Ec] | %9
w: make the run suc-|cess- ful, from the|cra- dle to the|grave; Watch the|
w: Christ is your con-|duc- tor on this|light- ning train of|life; Al- ways|
w: fill, or curve, or|tres- tle, they will|al- most ditch your|train; Put your|
w: hold the Un- ion|De- pot in- to|which your train will|glide; There you’ll|
 [Ec]3 [CA] [DB][Ec] | [DB]2 [CA]2 [CA]>[CA] | [FA]3 [FB] [FA]>[DF] | [CE]4 [CE][CE] | %13
w: curves, the fills, the|tun- nels; nev- er|fal- ter, nev- er|quail; Keep your|
w: mind- ful of ob-|struct- ion, do your|du- ty, nev- er|fail; Keep your|
w: trust a- lone in|Je- sus; nev- er|fal- ter, nev- er|fail; Keep your|
w: meet the super- in-|tend- ent, God the|Fa- ther, God the|Son, With the|
 [CA]3 [CE] [CA][DB] | [Ec] [Ec]3 [CA]>[DB] | [Ec]3 [CA] [DB]>[DB] | [CA]4 ||"^Refrain" [Fd]>[Fd] | %18
w: hand up- on the|throt- tle, and your|eye up- on the|rail.||
w: hand up- on the|throt- tle, and your|eye up- on the|rail.|Bless- èd|
w: hand up- on the|throt- tle, and your|eye up- on the|rail.||
w: heart- y, joy- ous,|plau- dit, “Wear- y|pil- grim, wel- come|home!”||
 [Fd]3 [Fd] [FA][_FB] | [Ec]2 [Ec]2 [Ee][Ee] | [Ee]3 [Ec] [EB][FA] | [GB]4 [Ec][Ed] | %22
w: ||||
w: Sav- ior, Thou wilt|guide us, Till we|reach that bliss- ful|shore; Where the|
w: ||||
w: ||||
 [Ae]3 [Ec] [EB][EA] | [DF]2 [FA]2 [FA][_FB] | [Ec]3 [EA] [EB][EB] | [EA]4 |] %26
w: ||||
w: an- gels wait to|join us In Thy|praise for- ev- er-|more.|
w: ||||
w: ||||
V:2
 z2 | A,,2 A,2 [E,G,]2 | A,,2 A,2 A,2 | D,2 [F,A,]2 [F,A,]2 | A,,2 A,2 A,2 | (A,,2 A,2) A,2 | %6
 A,,2 A,2 A,2 | F,2 A,2 [B,,F,B,]2 | E,2 [E,G,B,]2 z2 | A,,2 A,2 A,2 | A,,2 A,2 A,2 | %11
 (D,2 [F,A,]2) [F,A,]2 | (A,,2 A,2) z2 | (A,,2 A,2) A,2 | A,,2 A,2 z2 | [E,,E,]2 [E,A,C]2 [E,G,]2 | %16
 [A,,A,]4 || [D,A,]>A, | [D,A,]3 [D,A,] [D,A,][D,A,] | [A,,A,]2 [A,,A,]2 [A,C][A,C] | %20
 [A,C]3 A, [G,B,][F,=D] | [E,E]4 A,[A,B,] | [A,C]3 [A,,A,] [B,,G,][C,A,] | %23
 [D,A,]2 [D,A,]2 [D,A,][D,A,] | [E,A,]3 [E,C] [E,D][E,D] | [A,,C]4 |] %26
V:3
 x2 | A,,2 A,2 x2 | A,,2 A,2 A,2 | D,2 x4 | A,,2 A,2 A,2 | A,,2 A,2 A,2 | A,,2 A,2 A,2 | %7
 (F,2 A,2) x2 | E,2 x4 | A,,2 A,2 A,2 | A,,2 A,2 A,2 | x6 | x6 | A,,2 A,2 A,2 | A,,2 A,2 x2 | x6 | %16
 x4 || x2 | x6 | x6 | x3 A, x2 | x4 A, x | x6 | x6 | x6 | x4 |] %26

